public/left.svg

<svg width="24" height="24" viewBox="0 0 24 24" fill="none" xmlns="http://www.w3.org/2000/svg">
<path d="M14.8776 7.12747C15.0337 7.28355 15.0338 7.53658 14.8779 7.69284L10.8621 11.7175C10.7063 11.8736 10.7063 12.1264 10.8621 12.2825L14.8779 16.3072C15.0338 16.4634 15.0337 16.7164 14.8776 16.8725L14.033 17.7172C13.8768 17.8734 13.6235 17.8734 13.4673 17.7172L8.033 12.2828C7.87679 12.1266 7.87679 11.8734 8.033 11.7172L13.4673 6.28284C13.6235 6.12663 13.8768 6.12663 14.033 6.28284L14.8776 7.12747Z" fill="#979797"/>
</svg>

<svg xmlns="http://www.w3.org/2000/svg" width="24" height="24" fill="none" xmlns:v="https://vecta.io/nano"><path d="M14.878 7.127a.4.4 0 0 1 0 .565l-4.016 4.025a.4.4 0 0 0 0 .565l4.016 4.025a.4.4 0 0 1 0 .565l-.845.845a.4.4 0 0 1-.566 0l-5.434-5.434a.4.4 0 0 1 0-.566l5.434-5.434a.4.4 0 0 1 .566 0l.845.845z" fill="#979797"/></svg>
